X: 28
T: Saint Anne's
Z: JohnMcTilly
S: https://thesession.org/tunes/103#setting53075
R: reel
M: 4/4
L: 1/8
K: Dmaj
|:"D"fedf edcB|A2FA DAFA|"Em"B2GB EBGB|"D"A2FA DAFA|
fedf edcB|A2FA DAFA|"G"Beed "A7"cABc|"D"eddc d2 de:|
|:"D"~f2 fd ~f2 fd|"G"~g2 gf ~g2 gf |"A7" edcB Acea|baa^g ~a3 g|
"D"~f2 fd ~f2 fd|"G"~g2 gf ~g2 gf|"A7"edcB Aceg|"D"fddc d2 de:|

%-------------------- TUNE SEPARATOR --------------------%

